!!!OTL: 68a. Die glueckliche Nonne. / (Flucht aus dem Kloſter.)
!!!ODT: 1840
!!!ARE: Europa, Mitteleuropa, Deutschland, Schlesien, Breslau; Hainau
!!!SCT: E0068
!!!TXL: @@DE
!!!YEM: Copyright 1995, estate of Helmut Schaffrath.
**kern	**text
*ICvox	*
*M2/4	*
*k[b-]	*
*F:	*
!LO:TX:a:t=Mäßig.	!
!LO:TX:a:t=Aus Schleſten. (Breslau, Hainau.) 1840.	!
{8c	'Was
=1	=1
8f	wirſt
8f	du
8a	mir
8a	mit-
=2	=2
(4cc	-brin-
8a)}	-gen,
{8a	Herʒ-
=3	=3
8g	-al-
8dd	-ler-
8cc	-lieb-
8b-	-ſter
=4	=4
4a	mein?'
8r}	.
{8a	"Von
=5	=5
8cc	Ros-
8b-/	-ma-
8g	-rin
8b-/	ein
=6	=6
4b-/	Rie-
8a}	-chel,
{8a	von
=7	=7
8cc	blau-
8b-	-er
8g	Seid
8b-/	ein
=8	=8
4b-/	Tü-
8a}	-chel,
{8c	von
=9	=9
8f	ſchwarʒbrau_ner
8f	.
8a	Seid
8cc	ein
=10	=10
4.ff}	Kleid,
{8dd	von
=11	=11
8cc	ſchwarʒbrauner
8a	.
16ccL	Seid
16b-J	.
8g	ein
=12	=12
4f	Kleid."
8r}	.
==	==
!!!AGN: erzaehlendes Volks - Lied, Sage, Liebe, Ballade ?
!!!ONB: ESAC (Essen Associative Code) Database: ERK1
!!!AMT: simple duple
!!!AIN: vox
!!!EED: Helmut Schaffrath
!!!EEV: 1.0
!!!GTL: Liebesgeschichten mit gluecklichem Ausgange
!!!URL-scan: https://rosdok.uni-rostock.de/mcrviewer/recordIdentifier/rosdok_ppn745146120/iview2/phys_0308.iview2?x=-495.6391625615772&y=509.8992425443139&scale=0.46294184720638515&rotation=0&layout=singlePageLayout&logicalDiv=log_0009
!!!ENC: Anna Maria Matuszewska
!!!EEV: 2024/11/26
*-	*-
